X:1
T:Donna
T:Donna
T:Ritchie Valens
T:Slow Rock
C:Ritchie Valens
Z:All Rights Reserved
L:1/8
M:4/4
K:C
V:1 treble nm="Electric Piano"
%%MIDI program 4
V:1
"F" E4 AG F2 |"Bb" F4"C7" AG G2 |"F" F4 AG F2 |"Bb" F4"C7" A2 G2 |:"F" z2 (3cAG G2 F2 | %5
w: Oh Don * na|oh Don * na|oh Don * na|Oh Don- na|I had a girl *|
"Bb" ddd_B"C7" G4 |"F" z2 (3cAG G2 FF |"Bb" ddd_B"C7" G2 AB |"F" c2 Ac AG F2 | %9
w: Don- na was her name|since she left me * I've|nev- er been the same cause I|love my * girl * *|
"Bb" _BAGF"C7" E2 cc |"F" c2 A6 |1"Bb" d2 _BG"C7" E4 :|2"F" G2 F2"Bb" G2 AA ||"F" G2 F4"F7" F2 | %14
w: Don- na * * where can you||where can you be|be * where can you|be * oh|
"Bb" d2 d4 (3dc_B | _B6 fd |"F" c4 d2 e2 | c4 f2 gf |"Bb" d6 (3ddd | d4 e2 f2 |"C7" e4 d4 | c8 | %22
w: dar- ling now that you're|gone I dont|know what I'll|do A'' * my|smiles and all my|love for *|you *||
"F" z2 (3cAG G2 F2 |"Bb" ddd_B"C7" G4 |"F" z2 (3cAG G2 FF |"Bb" ddd_B"C7" G2 AB |"F" c2 Ac AG F2 | %27
w: I had a girl *|Don- na was her name|since she left me * I've|nev- er been the same Cause I|love my * girl * *|
"Bb" _BAGF"C7" E2 cc |"F" c2 A6 |"Bb" d2 _BG"C7" E4 |:"F" F4 AG F2 |"Bb" F4"C7" AG G2 | %32
w: Don- na * * where can you|be *|where can you be|Oh Don- na *|oh Don- na *|
"F" F4 AG F2 |"Bb" F4"C7" A2"_Repeat and fade" z2 :| %34
w: oh Don- na *|Oh Don-|

